X:35
T:Old Joe's Jig
R:jig
M:6/8
L:1/8
K:D
d/e/ f2 AAF | ABG B A2 | ABd BAF | ABc  ded |
e  f2   AAF | ABG B A2 | ABd BAF | ABd c d2 :|
d/e/fg  fef | edB A d2 | efa aaf | dfa a b2 |
afg     fef | edB A d2 | efA AAF | AGB d d2 :|
